X:1
T:The Lothian Hairst
M:4/4
L:1/8
K:C
A-G| F D2 DD-EF-G| A d2 d3c-d| e3 dd-c A2| c6| A2| D D3 F2 G2| A d3 c3 A|\
 G2 F2 D3 D| D6||
